!!!COM: Bach, Johann Sebastian
!!!CDT: 1685/3//-1750/7/28/
!!!OTL@@DE: Hilf, Herr Jesu, lass gelingen
!!!AGN: 4-Part Chorale
!!!SCT: BH 368
!!!SCT: BWV 248
!!!YEC: Copyright 1994 by David Huron
!!!YEC: Changes/Additions 2001 by Craig Stuart Sapp
!!!YEN: United States of America
!!!SMA: 371 Bach Chorales, edited by Ludwig Erk, C.F. Peters
!!!PDT: 1850, 1865
!!!ONB: Harmony and Root analysis done manually
**kern	**kern	**kern	**kern	**root	**harm
*Iorgan	*Iorgan	*Iorgan	*Iorgan	*Iorgan	*
!bass	!tenor	!alto	!soprno	!	!
*M3/4	*M3/4	*M3/4	*M3/4	*M3/4	*M3/4
*MM60	*MM60	*MM60	*MM60	*MM60	*MM60
*k[b-]	*k[b-]	*k[b-]	*k[b-]	*k[b-]	*k[b-]
*F:	*F:	*F:	*F:	*F:	*F:
*>[A,A,B]	*>[A,A,B]	*>[A,A,B]	*>[A,A,B]	*>[A,A,B]	*>[A,A,B]
*>A	*>A	*>A	*>A	*>A	*>A
=1-	=1-	=1-	=1-	=1-	=1-
8F	4f	4a	4cc	4FF	I
8G	.	.	.	.	.
4A	2c	2f	2a	2FF	Ib
4F	.	.	.	.	.
=2	=2	=2	=2	=2	=2
2C	4.c	4f	2g	2CC	V
.	.	4e	.	.	.
.	8B-	.	.	.	.
4D	4A	4f	4f	4DD	vi
=3	=3	=3	=3	=3	=3
8G	2B-	4d	4b-	4GG	ii
8F	.	.	.	.	.
4E-	.	4g	4.cc	4CC	v7b
4F	8A	4f	.	4FF	I
.	16B-	.	16dd	.	.
.	16c	.	16ee-	.	.
=4	=4	=4	=4	=4	=4
8BB-	4c	2.f	2.dd	2.BB-	IV
8C	.	.	.	.	.
4D	8B-	.	.	.	.
.	8A	.	.	.	.
4BB-	4B-	.	.	.	.
=5	=5	=5	=5	=5	=5
2.F;	2.A;	2.f;	2.cc;	2.FF;	I;
=6	=6	=6	=6	=6	=6
4D	4f	4a	4dd	4DD	vi
4G	2d	2g	2b-	2GG	ii
4F	.	.	.	.	.
=7	=7	=7	=7	=7	=7
4E	8c	4g	2cc	4CC	Vb
.	8B-	.	.	.	.
8F	4A	4f	.	4FF	I
8E	.	.	.	.	.
8D	4A	4f	4f	4DD	vi
8C	.	.	.	.	.
=8	=8	=8	=8	=8	=8
8D	8d	8f	4b-	8BB-	IVb
8E	8c	8g	.	8CC	V7b
4F	2c	4g	2a	2FF	I
4F	.	4f	.	.	.
=9	=9	=9	=9	=9	=9
2.C;	2.c;	2.e;	2.g;	2.CC;	V;
*>B	*>B	*>B	*>B	*>B	*>B
!!linebreak: 2
=10:|!	=10:|!	=10:|!	=10:|!	=10:|!	=10:|!
8C	2c	8g	4ee	4CC	V
8D	.	8f	.	.	.
4E	.	4g	2cc	4CC	Vb
4C	4e	4g	.	4CC	V
=11	=11	=11	=11	=11	=11
8F	2c	4g	2a	2FF	I
8E	.	.	.	.	.
4F	.	4f	.	.	.
4B-	[4B-	4f	4dd	4BB-	IV
=12	=12	=12	=12	=12	=12
4E	4B-]	4g	4cc#	4EE	viioD7
4F	4A	4a	4.dd	4DD	vib
4D	8d	8b-	.	8BB-	IVb
.	8c	8a	16ee	8DD	vi7
.	.	.	16ff	.	.
=13	=13	=13	=13	=13	=13
4D	4B-	8g	2.ee	4EE	vii7d
.	.	8f	.	.	.
8C#	8A	4.g	.	4.AA	V7d/vi
8BBn	8G	.	.	.	.
4C#	4A	.	.	.	.
.	.	8e	.	8AA	Vb/vi
=14	=14	=14	=14	=14	=14
2.D;	2.A;	2.f;	2.a;	2.DD;	vi;
=15	=15	=15	=15	=15	=15
8B-	4.B-	4f	4dd	4BB-	IV
8A	.	.	.	.	.
4G	.	4g	4ee	4EE	viib
.	8G	.	.	.	.
4F	4c	4a	4ff	4FF	I
=16	=16	=16	=16	=16	=16
8E	2c	8g	4gg	4CC	Vb
8D	.	8f	.	.	.
4E	.	4g	4cc	4CC	Vb
4C	4G	4e	4b-	4CC	V7
=17	=17	=17	=17	=17	=17
4F	2F	4c	4a	4FF	I
2BB-	.	4B-	4dd	4BB-	IV
.	4d	4f	4b-	4BB-	IV
=18	=18	=18	=18	=18	=18
8C	4G	4f	2.g	4CC	V
8BB-	.	.	.	.	.
2C	4c	8e	.	2CC	V
.	.	8d	.	.	.
.	4B-	4e	.	.	.
=19	=19	=19	=19	=19	=19
2.FF;	2.A;	2.c;	2.f;	2.FF;	I;
==	==	==	==	==	==
*-	*-	*-	*-	*-	*-
!!chor2scor: -l 2 -o %b.pmx
